dist/svgs/core-ui-icons/free/cil-crop-rotate.svg

<svg xmlns="http://www.w3.org/2000/svg" viewBox="0 0 512 512"><path d="M49.386 256c0-114.184 92.8-207.1 206.935-207.294v41.759L368 15.965H256.321L256 16c-63.783.094-123.414 25.679-168.525 70.79A237.732 237.732 0 0017.386 256zm206.601 207.367V432l-111.679 64h111.679c132.4-.36 240-108.214 240-239.965h-32c-.005 114.106-93.249 206.972-208 207.332z"/><path d="M337.372 152H184v-32h-32v32h-32v32h32v176h168v32h32v-32h32v-32h-32V222.628l-32 32V328H201.373L384 145.372V128h-22.628zM184 305.372V184h121.372z"/></svg>

<svg xmlns="http://www.w3.org/2000/svg" viewBox="0 0 512 512">
  <path fill="var(--ci-primary-color, currentColor)" d="M49.386,256c0-114.184,92.8-207.1,206.935-207.294V90.465L368,15.965H256.321L256,16c-63.783.094-123.414,25.679-168.525,70.79A237.732,237.732,0,0,0,17.386,256Z" class="ci-primary"/>
  <path fill="var(--ci-primary-color, currentColor)" d="M255.987,463.367V432L144.308,496H255.987c132.4-.36,240-108.214,240-239.965h-32C463.982,370.141,370.738,463.007,255.987,463.367Z" class="ci-primary"/>
  <path fill="var(--ci-primary-color, currentColor)" d="M337.372,152H184V120H152v32H120v32h32V360H320v32h32V360h32V328H352V222.628l-32,32V328H201.373L384,145.372V128H361.372ZM184,305.372V184H305.372Z" class="ci-primary"/>
</svg>
